assets/icons/projects/arrow-expand-all.svg

<svg width="22" height="22" viewBox="0 0 22 22" fill="none" xmlns="http://www.w3.org/2000/svg">
    <path d="M8.08333 12.2717L9.72833 13.9167L4.47833 19.1667H8.66667V21.5H0.5V13.3333H2.83333V17.5217L8.08333 12.2717ZM9.72833 8.08333L8.08333 9.72833L2.83333 4.47833V8.66667H0.5V0.5H8.66667V2.83333H4.47833L9.72833 8.08333ZM13.9167 12.2717L19.1667 17.5217V13.3333H21.5V21.5H13.3333V19.1667H17.5217L12.2717 13.9167L13.9167 12.2717ZM12.2717 8.08333L17.5217 2.83333H13.3333V0.5H21.5V8.66667H19.1667V4.47833L13.9167 9.72833L12.2717 8.08333Z" fill="#535558"/>
</svg>

<svg xmlns="http://www.w3.org/2000/svg" width="22" height="22" fill="none"><path fill="#535558" d="m8.083 12.272 1.645 1.645-5.25 5.25h4.189V21.5H.5v-8.167h2.333v4.189l5.25-5.25Zm1.645-4.189L8.083 9.728l-5.25-5.25v4.189H.5V.5h8.167v2.333H4.478l5.25 5.25Zm4.189 4.189 5.25 5.25v-4.189H21.5V21.5h-8.167v-2.333h4.189l-5.25-5.25 1.645-1.645Zm-1.645-4.189 5.25-5.25h-4.189V.5H21.5v8.167h-2.333V4.478l-5.25 5.25-1.645-1.645Z"/></svg>
